X:283
T: DU SCHOENE LILIE AUF DEM FELD
N: B0761
O: Europa, Mitteleuropa, Deutschland
R: Natur - Lied, religioes
M: 4/4
L: 1/8
K: G
D2 | B2B2A2A2 | G2BGD3
D | c2c2B2dB | A4z2
GB | d2d2e2e2 | dcBcA3
d | B2G2BAGF | G4z2

